stillgen/static/lut_dir/REDLog3G10WG_to_gm5_ARRILogC4WG4.cube
# Created with Image Science
LUT_3D_SIZE 9
0.052778 0.052778 0.052778
0.1148 0.0545646 0.0464479
0.209363 0.0607416 0.0192027
0.313823 0.112518 -8.19846e-09
0.427601 0.206198 8.9407e-08
0.545776 0.317348 2.68221e-07
0.665238 0.434715 2.08616e-06
0.785062 0.553946 4.20213e-06
0.904987 0.673706 -1.63969e-08
0.0483287 0.115913 0.0219995
0.112535 0.116826 0.01308
0.205165 0.121726 -1.63969e-08
0.311633 0.152645 -1.63969e-08
0.427006 0.222569 -1.63969e-08
0.545612 0.322601 2.68221e-07
0.665192 0.436239 5.06639e-07
0.785049 0.554374 4.20213e-06
0.904983 0.673825 2.52128e-05
0.0727637 0.185408 -1.63969e-08
0.113806 0.190101 -1.63969e-08
0.19551 0.201209 -8.19846e-09
0.306126 0.222184 -1.63969e-08
0.425075 0.263921 2.08616e-07
0.545038 0.339245 -1.63969e-08
0.66503 0.441522 -1.63969e-08
0.785004 0.5559 4.20213e-06
0.904971 0.674253 -1.63969e-08
0.140368 0.277973 2.98023e-08
0.158734 0.280798 2.98023e-08
0.208046 0.289161 -1.63969e-08
0.301067 0.307292 8.9407e-08
0.420289 0.335371 -1.63969e-08
0.543179 0.381151 2.68221e-07
0.664462 0.458251 2.6226e-06
0.784842 0.561192 -1.63969e-08
0.904926 0.67578 -1.63969e-08
0.238523 0.38867 2.68221e-07
0.244915 0.38964 -1.63969e-08
0.265448 0.392922 1.49012e-07
0.319028 0.402558 -1.63969e-08
0.416611 0.423014 1.49012e-07
0.538594 0.453327 8.04663e-07
0.662623 0.50033 -1.63969e-08
0.784276 0.577946 -1.63969e-08
0.904764 0.681074 -1.63969e-08
0.35142 0.505894 -1.63969e-08
0.353336 0.506179 -1.63969e-08
0.36 0.507191 -1.63969e-08
0.381301 0.510612 -1.63969e-08
0.436314 0.520629 -1.63969e-08
0.535312 0.541767 1.04308e-06
0.658095 0.572724 -1.63969e-08
0.782442 0.620074 1.04904e-05
0.904198 0.697835 -1.63969e-08
0.469327 0.625084 -1.63969e-08
0.46987 0.625165 1.04308e-06
0.471811 0.625454 -1.63969e-08
0.478557 0.626477 1.04308e-06
0.500087 0.629937 -1.63969e-08
0.55552 0.640062 -1.63969e-08
0.654923 0.661393 2.08616e-06
0.77793 0.69253 4.20213e-06
0.902366 0.739977 -1.63969e-08
0.588713 0.744832 -1.63969e-08
0.588864 0.744855 4.20213e-06
0.58941 0.744935 4.20213e-06
0.591358 0.745226 -1.63969e-08
0.598127 0.746252 -1.63969e-08
0.619722 0.749723 8.40425e-06
0.675273 0.759878 -1.63969e-08
0.774789 0.781263 -1.63969e-08
0.897858 0.81245 -1.63969e-08
0.708515 0.864736 -1.63969e-08
0.708557 0.864742 -1.63969e-08
0.708709 0.864765 -1.63969e-08
0.709255 0.864846 -1.63969e-08
0.711205 0.865136 -1.63969e-08
0.717981 0.866164 -1.63969e-08
0.739594 0.869638 -1.63969e-08
0.795178 0.879801 -1.63969e-08
0.894726 0.901201 -1.63969e-08
0.0528181 0.0441068 0.12823
0.114821 0.0460652 0.125459
0.209371 0.0528094 0.114714
0.320869 0.0737567 0.0605902
0.431041 0.187994 -1.63969e-08
0.546734 0.312493 -1.63969e-08
0.665504 0.433381 1.57952e-06
0.785136 0.553577 6.28829e-06
0.905007 0.673604 -1.63969e-08
0.0483708 0.1116 0.115731
0.112556 0.112556 0.112556
0.208553 0.115929 0.100111
0.320622 0.127176 0.0326893
0.430361 0.208684 -1.63969e-08
0.546564 0.318112 1.49012e-07
0.665458 0.434933 -1.63969e-08
0.785123 0.554007 -1.63969e-08
0.905004 0.673723 -1.63969e-08
0.030294 0.209687 0.0478476
0.103895 0.210023 0.041162
0.205543 0.211226 0.0120584
0.314387 0.218518 2.98023e-08
0.428152 0.257428 8.9407e-08
0.545967 0.335775 -1.63969e-08
0.665294 0.440314 -1.63969e-08
0.785078 0.555541 -1.63969e-08
0.904991 0.674152 -1.63969e-08
0.128539 0.289478 -1.63969e-08
0.151544 0.291447 -1.63969e-08
0.208091 0.29737 1.19209e-07
0.304652 0.310886 8.9407e-08
0.422611 0.334782 -1.63969e-08
0.544032 0.379499 2.68221e-07
0.66472 0.457315 1.57952e-06
0.784915 0.56086 -1.63969e-08
0.904946 0.675681 -1.63969e-08
0.235804 0.392109 -1.63969e-08
0.242588 0.393003 -1.63969e-08
0.26417 0.396029 -1.63969e-08
0.319368 0.404945 -1.63969e-08
0.417667 0.424071 3.8743e-07
0.539242 0.453194 5.06639e-07
0.662859 0.499883 1.04308e-06
0.784347 0.577688 -1.63969e-08
0.904784 0.680982 -1.63969e-08
0.350705 0.506871 -1.63969e-08
0.352653 0.507151 5.06639e-07
0.359421 0.508141 5.06639e-07
0.380999 0.511488 -1.63969e-08
0.436434 0.5213 -1.63969e-08
0.53561 0.542065 -1.63969e-08
0.658275 0.57269 3.12924e-06
0.782508 0.619951 -1.63969e-08
0.904218 0.697764 -1.63969e-08
0.469132 0.625357 -1.63969e-08
0.469678 0.625437 1.04308e-06
0.471627 0.625724 -1.63969e-08
0.478402 0.626742 2.08616e-06
0.500008 0.630181 -1.63969e-08
0.555555 0.640249 -1.63969e-08
0.655006 0.661476 -1.63969e-08
0.77798 0.692521 -1.63969e-08
0.902384 0.739943 -1.63969e-08
0.588659 0.744908 -1.63969e-08
0.588811 0.74493 4.20213e-06
0.589357 0.745011 -1.63969e-08
0.591307 0.745301 8.40425e-06
0.598084 0.746326 -1.63969e-08
0.6197 0.749791 1.26064e-05
0.675283 0.75993 1.68085e-05
0.774812 0.781286 -1.63969e-08
0.897872 0.812448 -1.63969e-08
0.708501 0.864757 -1.63969e-08
0.708543 0.864763 1.68085e-05
0.708694 0.864786 1.68085e-05
0.709241 0.864867 -1.63969e-08
0.711191 0.865157 -1.63969e-08
0.717969 0.866184 1.68085e-05
0.739588 0.869656 1.68085e-05
0.795181 0.879815 1.68085e-05
0.894732 0.901207 -1.63969e-08
0.0529628 0.00372958 0.230887
0.114896 0.00672916 0.229972
0.209398 0.016817 0.226593
0.320878 0.0461868 0.213273
0.438348 0.109708 0.138079
0.55023 0.290667 -1.63969e-08
0.666466 0.428287 -1.63969e-08
0.785402 0.552225 2.08616e-06
0.905081 0.673233 -1.63969e-08
0.0485225 0.0941383 0.226902
0.112633 0.09529 0.225947
0.208581 0.0993319 0.222416
0.320631 0.112616 0.20844
0.438277 0.14914 0.126908
0.550035 0.298161 -1.63969e-08
0.666419 0.429955 -1.63969e-08
0.785389 0.552664 -1.63969e-08
0.905078 0.673353 8.40425e-06
0.0304781 0.203936 0.210917
0.103979 0.204293 0.209783
0.205571 0.205571 0.205571
0.319733 0.210044 0.188569
0.438023 0.224608 0.0696402
0.549353 0.320818 5.06639e-07
0.666248 0.435717 1.04308e-06
0.785344 0.554227 -1.63969e-08
0.905065 0.673784 -1.63969e-08
2.98023e-08 0.317219 0.120545
0.0637086 0.320977 0.102934
0.193828 0.321346 0.0890351
0.316421 0.322665 0.00827593
0.431142 0.330895 8.9407e-08
0.547138 0.372709 -1.63969e-08
0.665651 0.453776 5.06639e-07
0.785179 0.559644 6.28829e-06
0.90502 0.675321 -1.63969e-08
0.219319 0.404418 -1.63969e-08
0.228435 0.405039 -1.63969e-08
0.25594 0.407154 -1.63969e-08
0.319484 0.413488 2.68221e-07
0.421381 0.427787 1.49012e-07
0.541587 0.452597 -1.63969e-08
0.663715 0.49821 2.08616e-06
0.784605 0.576747 -1.63969e-08
0.904857 0.680649 -1.63969e-08
0.347703 0.510383 -1.63969e-08
0.349781 0.51064 1.04308e-06
0.356974 0.511551 5.06639e-07
0.379673 0.514637 -1.63969e-08
0.436788 0.523716 -1.63969e-08
0.536677 0.543132 -1.63969e-08
0.658924 0.572556 1.04308e-06
0.782745 0.619502 2.08616e-06
0.904289 0.697506 -1.63969e-08
0.468397 0.62634 2.08616e-06
0.468952 0.626419 1.04308e-06
0.470934 0.6267 1.04308e-06
0.477814 0.627695 -1.63969e-08
0.499702 0.631061 -1.63969e-08
0.555677 0.640923 -1.63969e-08
0.655305 0.661775 -1.63969e-08
0.77816 0.692486 -1.63969e-08
0.90245 0.73982 2.52128e-05
0.588462 0.745181 -1.63969e-08
0.588615 0.745204 -1.63969e-08
0.589163 0.745284 4.20213e-06
0.591122 0.745572 -1.63969e-08
0.597928 0.746591 8.40425e-06
0.61962 0.750035 -1.63969e-08
0.675318 0.760117 -1.63969e-08
0.774895 0.781369 -1.63969e-08
0.897922 0.812438 -1.63969e-08
0.708447 0.864833 -1.63969e-08
0.708489 0.864839 -1.63969e-08
0.708641 0.864862 -1.63969e-08
0.709188 0.864942 -1.63969e-08
0.711141 0.865232 1.68085e-05
0.717926 0.866258 -1.63969e-08
0.739566 0.869724 -1.63969e-08
0.79519 0.879867 -1.63969e-08
0.894755 0.90123 -1.63969e-08
0.114014 8.9407e-08 0.336665
0.146969 2.98023e-08 0.33703
0.216433 8.9407e-08 0.33797
0.319451 -1.63969e-08 0.338335
0.438356 0.0174155 0.326321
0.557611 0.181355 0.241812
0.669978 0.405213 2.6226e-06
0.786366 0.547062 8.40425e-06
0.905348 0.671876 -1.63969e-08
0.0629159 -1.63969e-08 0.342946
0.11857 5.96046e-08 0.342898
0.209297 -1.63969e-08 0.342549
0.32066 0.0250253 0.339376
0.438286 0.09958 0.324905
0.557591 0.201752 0.238274
0.669923 0.407484 -1.63969e-08
0.786353 0.547533 -1.63969e-08
0.905344 0.671999 -1.63969e-08
0.0311393 0.179628 0.339992
0.104281 0.180091 0.339709
0.205673 0.181744 0.338677
0.319763 0.187476 0.334857
0.438032 0.205651 0.319608
0.55752 0.25176 0.224266
0.669728 0.415218 1.57952e-06
0.786305 0.549213 -1.63969e-08
0.905331 0.672438 -1.63969e-08
-1.22977e-08 0.313595 0.32154
0.0641724 0.314648 0.322327
0.193943 0.315042 0.321083
0.316452 0.316452 0.316452
0.437109 0.321369 0.297528
0.557264 0.33723 0.142416
0.669046 0.438491 3.12924e-06
0.786134 0.555016 -1.63969e-08
0.905285 0.674004 -1.63969e-08
-1.63969e-08 0.43136 0.229002
-1.63969e-08 0.433888 0.218847
0.132374 0.438388 0.1925
0.303423 0.438767 0.172657
0.433674 0.440089 -1.63969e-08
0.550197 0.448642 -1.63969e-08
0.666829 0.491332 -1.63969e-08
0.785537 0.573189 -1.63969e-08
0.905121 0.679431 -1.63969e-08
0.329335 0.522932 -1.63969e-08
0.332215 0.523111 2.68221e-07
0.34198 0.523746 -1.63969e-08
0.371088 0.525903 -1.63969e-08
0.436927 0.532357 -1.63969e-08
0.540428 0.546884 -1.63969e-08
0.661276 0.571957 1.04308e-06
0.783601 0.617823 -1.63969e-08
0.904547 0.696563 -1.63969e-08
0.465307 0.629872 -1.63969e-08
0.4659 0.629944 -1.63969e-08
0.468015 0.630203 -1.63969e-08
0.475331 0.631119 -1.63969e-08
0.498362 0.634222 -1.63969e-08
0.556035 0.643347 4.20213e-06
0.656374 0.662844 -1.63969e-08
0.77881 0.692352 4.20213e-06
0.902687 0.73937 8.40425e-06
0.587721 0.746166 8.40425e-06
0.587876 0.746188 4.20213e-06
0.588434 0.746267 4.20213e-06
0.590426 0.746548 -1.63969e-08
0.597338 0.747545 4.20213e-06
0.619314 0.750916 4.20213e-06
0.675439 0.760792 -1.63969e-08
0.775194 0.781668 1.68085e-05
0.898102 0.812403 -1.63969e-08
0.708249 0.865106 1.68085e-05
0.708292 0.865113 -1.63969e-08
0.708445 0.865135 -1.63969e-08
0.708994 0.865215 -1.63969e-08
0.710956 0.865503 -1.63969e-08
0.71777 0.866523 -1.63969e-08
0.739486 0.869969 -1.63969e-08
0.795226 0.880054 -1.63969e-08
0.894838 0.901313 -1.63969e-08
0.209112 -1.63969e-08 0.452086
0.221848 -1.63969e-08 0.452241
0.257517 -1.63969e-08 0.452755
0.330492 3.8743e-07 0.454154
0.436257 -1.63969e-08 0.455553
0.55719 3.27826e-07 0.444616
0.677379 0.281904 0.356729
0.789881 0.523618 7.33137e-06
0.906312 0.666693 -1.63969e-08
0.195867 -1.63969e-08 0.45382
0.210785 -1.63969e-08 0.453943
0.250991 8.9407e-08 0.454349
0.328798 1.49012e-07 0.455407
0.436698 -1.63969e-08 0.455995
0.5576 0.0269889 0.443876
0.677374 0.289372 0.355709
0.789866 0.524264 6.28829e-06
0.906308 0.666825 -1.63969e-08
0.098239 -1.63969e-08 0.46037
0.139245 1.78814e-07 0.46037
0.216586 5.96046e-08 0.460352
0.32111 2.98023e-08 0.460091
0.438062 0.0497916 0.457248
0.557529 0.187824 0.442422
0.677354 0.312234 0.351929
0.789812 0.526556 8.40425e-06
0.906295 0.667297 -1.63969e-08
-1.63969e-08 0.288861 0.457254
0.0658275 0.287407 0.457878
0.194359 0.287934 0.457588
0.316564 0.289813 0.456533
0.43714 0.296296 0.452624
0.557273 0.31654 0.436981
0.677283 0.366287 0.33686
0.789617 0.53436 -1.63969e-08
0.906247 0.66898 -1.63969e-08
1.78814e-07 0.429924 0.438065
1.49012e-07 0.430629 0.438771
0.133175 0.431877 0.439775
0.303552 0.432283 0.438497
0.433734 0.433734 0.433734
0.556343 0.438791 0.414198
0.677027 0.455052 0.243603
0.788934 0.557809 2.08616e-06
0.906077 0.674795 -1.63969e-08
6.85453e-07 0.549667 0.345305
3.8743e-07 0.550368 0.342666
6.85453e-07 0.552918 0.331799
0.231173 0.557632 0.301939
0.420297 0.558014 0.279423
0.552835 0.559293 1.84774e-06
0.669907 0.567982 -1.63969e-08
0.786717 0.610921 -1.63969e-08
0.905479 0.692999 -1.63969e-08
0.446349 0.64249 -1.63969e-08
0.44718 0.64254 -1.63969e-08
0.450121 0.64272 1.04308e-06
0.460085 0.643358 -1.63969e-08
0.489672 0.645528 -1.63969e-08
0.55618 0.652016 -1.63969e-08
0.660136 0.666606 -1.63969e-08
0.781163 0.691752 -1.63969e-08
0.903543 0.73769 -1.63969e-08
0.584606 0.749704 4.20213e-06
0.584772 0.749724 -1.63969e-08
0.585369 0.749796 -1.63969e-08
0.587494 0.750055 -1.63969e-08
0.594845 0.750973 4.20213e-06
0.61797 0.75408 -1.63969e-08
0.675799 0.763218 -1.63969e-08
0.776264 0.782738 8.40425e-06
0.898752 0.812269 -1.63969e-08
0.707507 0.866092 -1.63969e-08
0.70755 0.866098 -1.63969e-08
0.707705 0.86612 -1.63969e-08
0.708264 0.866198 -1.63969e-08
0.710258 0.86648 1.68085e-05
0.71718 0.867477 -1.63969e-08
0.739179 0.870849 -1.63969e-08
0.795348 0.880729 -1.63969e-08
0.895137 0.901612 -1.63969e-08
0.320828 2.68221e-07 0.570752
0.324817 -1.63969e-08 0.570799
0.337983 -1.63969e-08 0.570965
0.374594 -1.63969e-08 0.571522
0.448722 -1.63969e-08 0.57305
0.555326 -1.63969e-08 0.574742
0.676774 1.90735e-06 0.56416
0.797289 0.395688 0.475245
0.909829 0.643146 1.26064e-05
0.317161 8.04663e-07 0.571232
0.321338 -1.63969e-08 0.571277
0.335066 -1.63969e-08 0.571435
0.37286 5.06639e-07 0.571962
0.448272 -1.63969e-08 0.573397
0.55545 -1.63969e-08 0.574865
0.676916 -1.63969e-08 0.563934
0.797287 0.397962 0.474959
0.909824 0.643326 2.10106e-05
0.301859 -1.63969e-08 0.572987
0.306898 -1.63969e-08 0.573023
0.323154 -1.63969e-08 0.573149
0.366009 -1.63969e-08 0.573566
0.446542 3.8743e-07 0.574658
0.555894 6.85453e-07 0.57531
0.677363 0.0551316 0.563161
0.797282 0.405735 0.473919
0.909809 0.643974 8.40425e-06
0.169459 -1.63969e-08 0.579614
0.190771 8.9407e-08 0.579615
0.242369 7.45058e-07 0.579618
0.32943 2.08616e-07 0.579608
0.438683 -1.63969e-08 0.579372
0.557304 0.106787 0.576623
0.677292 0.296689 0.561697
0.797262 0.42939 0.470066
0.909755 0.646271 -1.63969e-08
2.68221e-07 0.406606 0.576015
3.8743e-07 0.405496 0.576504
0.136012 0.403692 0.577258
0.304016 0.404241 0.576966
0.43385 0.406194 0.575904
0.556374 0.412922 0.57197
0.677035 0.433825 0.556213
0.797191 0.484687 0.454674
0.90956 0.654095 2.93851e-05
8.04663e-07 0.548855 0.557053
-1.63969e-08 0.549053 0.557251
3.27826e-07 0.549764 0.557963
0.232177 0.551069 0.559029
0.420431 0.551478 0.557741
0.552941 0.552941 0.552941
0.676103 0.558038 0.533228
0.796934 0.574414 0.357619
0.908877 0.677594 -1.63969e-08
-1.63969e-08 0.669168 0.464212
2.08616e-06 0.669362 0.463493
-1.63969e-08 0.670065 0.460806
1.3113e-06 0.672621 0.449723
0.344311 0.677395 0.418762
0.539387 0.677778 0.395373
0.672575 0.679045 -1.63969e-08
0.7898 0.687773 -1.63969e-08
0.90666 0.73078 -1.63969e-08
0.565479 0.762341 4.20213e-06
0.565712 0.762355 -1.63969e-08
0.566548 0.762405 8.40425e-06
0.569507 0.762585 -1.63969e-08
0.579527 0.763224 4.20213e-06
0.60925 0.765397 4.20213e-06
0.675946 0.771895 -1.63969e-08
0.780029 0.786503 8.40425e-06
0.901106 0.811669 -1.63969e-08
0.704385 0.869631 -1.63969e-08
0.704431 0.869637 1.68085e-05
0.704597 0.869657 3.35872e-05
0.705194 0.869729 3.35872e-05
0.707323 0.869988 1.68085e-05
0.714683 0.870907 1.68085e-05
0.737834 0.874015 -1.63969e-08
0.795707 0.883156 -1.63969e-08
0.896208 0.902683 -1.63969e-08
0.438372 1.04308e-06 0.690352
0.439519 -1.63969e-08 0.690366
0.443551 -1.63969e-08 0.690414
0.456845 -1.63969e-08 0.690583
0.493734 1.04308e-06 0.691152
0.568198 1.04308e-06 0.692717
0.675041 -1.63969e-08 0.69449
0.796632 9.44734e-06 0.684007
0.917238 0.513864 0.594804
0.437354 2.08616e-06 0.690485
0.438517 -1.63969e-08 0.690499
0.442599 -1.63969e-08 0.690546
0.456046 2.08616e-06 0.690714
0.493259 -1.63969e-08 0.691274
0.568074 -1.63969e-08 0.692813
0.675075 -1.63969e-08 0.694524
0.796672 2.6226e-06 0.683944
0.917237 0.514512 0.594724
0.43354 1.04308e-06 0.690968
0.434761 -1.63969e-08 0.69098
0.439039 -1.63969e-08 0.691025
0.453071 -1.63969e-08 0.691184
0.491502 -1.63969e-08 0.691714
0.567621 -1.63969e-08 0.69316
0.675199 -1.63969e-08 0.694648
0.796815 -1.63969e-08 0.683719
0.917236 0.516813 0.594437
0.417556 5.06639e-07 0.692729
0.419043 3.12924e-06 0.692739
0.424228 1.57952e-06 0.692775
0.440899 -1.63969e-08 0.692901
0.484555 -1.63969e-08 0.693322
0.565882 3.66569e-06 0.694423
0.675644 -1.63969e-08 0.695093
0.797271 0.116987 0.682936
0.91723 0.524676 0.593391
0.269791 -1.63969e-08 0.699377
0.277628 9.23872e-07 0.699377
0.301454 -1.63969e-08 0.699379
0.357074 -1.63969e-08 0.699382
0.44732 1.57952e-06 0.699375
0.557973 9.23872e-07 0.699146
0.677066 0.197791 0.696424
0.7972 0.413329 0.681468
0.917211 0.548561 0.589518
1.96695e-06 0.52594 0.695643
3.01003e-06 0.525636 0.695779
-1.63969e-08 0.524516 0.696269
0.235714 0.52261 0.697059
0.420911 0.523165 0.696767
0.553058 0.52514 0.695703
0.676135 0.531939 0.691762
0.796943 0.553032 0.675974
0.91714 0.604213 0.574033
2.08616e-06 0.66853 0.676744
1.57952e-06 0.668585 0.676799
3.12924e-06 0.668784 0.676998
-1.63969e-08 0.669497 0.677711
0.345391 0.670817 0.678795
0.539521 0.671228 0.677505
0.672694 0.672694 0.672694
0.796011 0.677802 0.652931
0.916883 0.69421 0.475866
-1.63969e-08 0.789003 0.58388
-1.63969e-08 0.789057 0.583682
4.20213e-06 0.789251 0.582959
4.20213e-06 0.789955 0.580258
5.24521e-06 0.792513 0.569113
0.462292 0.797303 0.537837
0.659107 0.797686 0.514194
0.792476 0.79895 -1.63969e-08
0.909745 0.807688 1.68085e-05
0.685211 0.882273 1.68085e-05
0.685275 0.882277 -1.63969e-08
0.685508 0.882291 -1.63969e-08
0.686345 0.882341 -1.63969e-08
0.68931 0.882521 3.35872e-05
0.699345 0.883161 -1.63969e-08
0.729107 0.885335 -1.63969e-08
0.795855 0.891835 -1.63969e-08
0.899973 0.906448 -1.63969e-08
0.557654 -1.63969e-08 0.810215
0.557975 -1.63969e-08 0.810219
0.559126 -1.63969e-08 0.810232
0.56317 -1.63969e-08 0.810281
0.5765 -1.63969e-08 0.810451
0.613467 -1.63969e-08 0.811023
0.688026 8.40425e-06 0.812598
0.794935 -1.63969e-08 0.814394
0.916567 -1.63969e-08 0.803938
0.557371 4.20213e-06 0.810252
0.557694 -1.63969e-08 0.810256
0.558849 -1.63969e-08 0.810269
0.562907 -1.63969e-08 0.810317
0.576279 4.20213e-06 0.810488
0.613336 -1.63969e-08 0.811057
0.687992 1.68085e-05 0.812625
0.794945 1.68085e-05 0.814403
0.916578 -1.63969e-08 0.803921
0.556343 8.40425e-06 0.810385
0.55667 4.20213e-06 0.810389
0.55784 4.20213e-06 0.810402
0.561949 1.26064e-05 0.81045
0.575477 -1.63969e-08 0.810617
0.612859 -1.63969e-08 0.811179
0.687868 -1.63969e-08 0.812721
0.794979 6.28829e-06 0.814437
0.916617 -1.63969e-08 0.803859
0.552487 -1.63969e-08 0.810868
0.55283 -1.63969e-08 0.810872
0.554058 -1.63969e-08 0.810884
0.558366 -1.63969e-08 0.810929
0.572484 -1.63969e-08 0.811088
0.611096 -1.63969e-08 0.81162
0.687414 -1.63969e-08 0.813068
0.795103 -1.63969e-08 0.814561
0.91676 4.40776e-05 0.803633
0.536302 8.40425e-06 0.812631
0.536722 -1.63969e-08 0.812633
0.538222 2.08616e-06 0.812643
0.543448 -1.63969e-08 0.81268
0.560239 -1.63969e-08 0.812807
0.604122 -1.63969e-08 0.813228
0.685672 -1.63969e-08 0.814332
0.795549 -1.63969e-08 0.815007
0.917219 0.211434 0.802847
0.383499 -1.63969e-08 0.819285
0.38589 -1.63969e-08 0.819285
0.394042 -1.63969e-08 0.819286
0.418675 2.6226e-06 0.819287
0.475527 2.6226e-06 0.81929
0.566701 -1.63969e-08 0.819284
0.677749 -1.63969e-08 0.819057
0.796974 0.30784 0.816342
0.917148 0.53235 0.801379
1.46925e-05 0.645728 0.815514
-1.63969e-08 0.645645 0.815552
6.28829e-06 0.64534 0.815687
-1.63969e-08 0.644216 0.816178
0.349187 0.642283 0.816978
0.540006 0.642839 0.816685
0.672811 0.64482 0.815621
0.796042 0.651639 0.811678
0.916891 0.672786 0.795881
-1.63969e-08 0.788414 0.796632
-1.63969e-08 0.788429 0.796648
-1.63969e-08 0.788484 0.796703
-1.63969e-08 0.788683 0.796902
-1.63969e-08 0.789397 0.797616
0.463395 0.790722 0.798704
0.659242 0.791132 0.797413
0.7926 0.792599 0.7926
0.915959 0.79771 0.772822
-1.63969e-08 0.908931 0.703762
1.68085e-05 0.908946 0.703707
3.35872e-05 0.909 0.703508
3.35872e-05 0.909195 0.702785
-1.63969e-08 0.909898 0.70008
-1.63969e-08 0.912457 0.688918
0.581699 0.917252 0.657554
0.779003 0.917635 0.633839
0.912423 0.918898 3.66569e-06
0.677427 4.19915e-05 0.930151
0.677517 -1.63969e-08 0.930152
0.677838 5.03659e-05 0.930156
0.67899 -1.63969e-08 0.930169
0.683037 8.40425e-06 0.930218
0.696378 8.40425e-06 0.930389
0.733367 -1.63969e-08 0.930961
0.807952 -1.63969e-08 0.932539
0.91488 8.38935e-05 0.934341
0.677349 -1.63969e-08 0.930161
0.677439 8.40425e-06 0.930162
0.677761 1.68085e-05 0.930166
0.678914 -1.63969e-08 0.930179
0.682965 -1.63969e-08 0.930228
0.696317 4.19915e-05 0.930399
0.733331 -1.63969e-08 0.930971
0.807942 -1.63969e-08 0.932546
0.914882 2.52128e-05 0.934343
0.677066 2.52128e-05 0.930198
0.677156 1.68085e-05 0.930199
0.677479 -1.63969e-08 0.930203
0.678637 5.03659e-05 0.930216
0.682701 8.40425e-06 0.930264
0.696096 1.68085e-05 0.930435
0.733199 8.40425e-06 0.931004
0.807908 4.19915e-05 0.932573
0.914892 2.52128e-05 0.934353
0.676035 -1.63969e-08 0.930331
0.676126 2.52128e-05 0.930333
0.676453 8.40425e-06 0.930336
0.677626 -1.63969e-08 0.930349
0.681742 -1.63969e-08 0.930397
0.695292 2.52128e-05 0.930565
0.732722 8.40425e-06 0.931126
0.807785 2.52128e-05 0.932669
0.914926 2.52128e-05 0.934387
0.672166 8.40425e-06 0.930815
0.672262 1.68085e-05 0.930815
0.672606 8.40425e-06 0.930819
0.673837 8.40425e-06 0.930832
0.678153 1.68085e-05 0.930876
0.692295 -1.63969e-08 0.931036
0.730957 -1.63969e-08 0.931567
0.80733 -1.63969e-08 0.933016
0.91505 5.87702e-05 0.934511
0.655926 -1.63969e-08 0.932577
0.656043 2.52128e-05 0.932578
0.656464 -1.63969e-08 0.932581
0.657967 2.52128e-05 0.932591
0.663205 2.52128e-05 0.932627
0.680029 8.40425e-06 0.932754
0.723976 -1.63969e-08 0.933176
0.805587 -1.63969e-08 0.934281
0.915496 2.52128e-05 0.934957
0.501652 -1.63969e-08 0.939234
0.502334 -1.63969e-08 0.939234
0.504753 -1.63969e-08 0.939234
0.512997 -1.63969e-08 0.939234
0.537864 6.28829e-06 0.939235
0.595068 -1.63969e-08 0.939239
0.686503 -1.63969e-08 0.939232
0.797661 -1.63969e-08 0.939006
0.916922 0.42486 0.936293
4.61936e-05 0.765643 0.935452
-1.63969e-08 0.76562 0.935462
2.72691e-05 0.765536 0.9355
-1.63969e-08 0.765231 0.935636
-1.63969e-08 0.764107 0.936126
0.46727 0.762165 0.936929
0.659727 0.762722 0.936637
0.792716 0.764705 0.935572
0.91599 0.771529 0.931628
-1.63969e-08 0.908355 0.916575
8.40425e-06 0.90836 0.916579
-1.63969e-08 0.908375 0.916595
-1.63969e-08 0.90843 0.91665
2.93851e-05 0.908629 0.916849
2.10106e-05 0.909343 0.917563
0.582808 0.910669 0.918653
0.779138 0.91108 0.917361
0.912547 0.912547 0.912547
