stillgen/static/lut_dir/REDLog3G10WG_to_gm5_ARRILogC4WG4.cube
# Created with Image Science
LUT_3D_SIZE 5
0.052778 0.052778 0.052778
0.209363 0.0607416 0.0192027
0.427601 0.206198 8.9407e-08
0.665238 0.434715 2.08616e-06
0.904987 0.673706 -1.63969e-08
0.0727637 0.185408 -1.63969e-08
0.19551 0.201209 -8.19846e-09
0.425075 0.263921 2.08616e-07
0.66503 0.441522 -1.63969e-08
0.904971 0.674253 -1.63969e-08
0.238523 0.38867 2.68221e-07
0.265448 0.392922 1.49012e-07
0.416611 0.423014 1.49012e-07
0.662623 0.50033 -1.63969e-08
0.904764 0.681074 -1.63969e-08
0.469327 0.625084 -1.63969e-08
0.471811 0.625454 -1.63969e-08
0.500087 0.629937 -1.63969e-08
0.654923 0.661393 2.08616e-06
0.902366 0.739977 -1.63969e-08
0.708515 0.864736 -1.63969e-08
0.708709 0.864765 -1.63969e-08
0.711205 0.865136 -1.63969e-08
0.739594 0.869638 -1.63969e-08
0.894726 0.901201 -1.63969e-08
0.0529628 0.00372958 0.230887
0.209398 0.016817 0.226593
0.438348 0.109708 0.138079
0.666466 0.428287 -1.63969e-08
0.905081 0.673233 -1.63969e-08
0.0304781 0.203936 0.210917
0.205571 0.205571 0.205571
0.438023 0.224608 0.0696402
0.666248 0.435717 1.04308e-06
0.905065 0.673784 -1.63969e-08
0.219319 0.404418 -1.63969e-08
0.25594 0.407154 -1.63969e-08
0.421381 0.427787 1.49012e-07
0.663715 0.49821 2.08616e-06
0.904857 0.680649 -1.63969e-08
0.468397 0.62634 2.08616e-06
0.470934 0.6267 1.04308e-06
0.499702 0.631061 -1.63969e-08
0.655305 0.661775 -1.63969e-08
0.90245 0.73982 2.52128e-05
0.708447 0.864833 -1.63969e-08
0.708641 0.864862 -1.63969e-08
0.711141 0.865232 1.68085e-05
0.739566 0.869724 -1.63969e-08
0.894755 0.90123 -1.63969e-08
0.209112 -1.63969e-08 0.452086
0.257517 -1.63969e-08 0.452755
0.436257 -1.63969e-08 0.455553
0.677379 0.281904 0.356729
0.906312 0.666693 -1.63969e-08
0.098239 -1.63969e-08 0.46037
0.216586 5.96046e-08 0.460352
0.438062 0.0497916 0.457248
0.677354 0.312234 0.351929
0.906295 0.667297 -1.63969e-08
1.78814e-07 0.429924 0.438065
0.133175 0.431877 0.439775
0.433734 0.433734 0.433734
0.677027 0.455052 0.243603
0.906077 0.674795 -1.63969e-08
0.446349 0.64249 -1.63969e-08
0.450121 0.64272 1.04308e-06
0.489672 0.645528 -1.63969e-08
0.660136 0.666606 -1.63969e-08
0.903543 0.73769 -1.63969e-08
0.707507 0.866092 -1.63969e-08
0.707705 0.86612 -1.63969e-08
0.710258 0.86648 1.68085e-05
0.739179 0.870849 -1.63969e-08
0.895137 0.901612 -1.63969e-08
0.438372 1.04308e-06 0.690352
0.443551 -1.63969e-08 0.690414
0.493734 1.04308e-06 0.691152
0.675041 -1.63969e-08 0.69449
0.917238 0.513864 0.594804
0.43354 1.04308e-06 0.690968
0.439039 -1.63969e-08 0.691025
0.491502 -1.63969e-08 0.691714
0.675199 -1.63969e-08 0.694648
0.917236 0.516813 0.594437
0.269791 -1.63969e-08 0.699377
0.301454 -1.63969e-08 0.699379
0.44732 1.57952e-06 0.699375
0.677066 0.197791 0.696424
0.917211 0.548561 0.589518
2.08616e-06 0.66853 0.676744
3.12924e-06 0.668784 0.676998
0.345391 0.670817 0.678795
0.672694 0.672694 0.672694
0.916883 0.69421 0.475866
0.685211 0.882273 1.68085e-05
0.685508 0.882291 -1.63969e-08
0.68931 0.882521 3.35872e-05
0.729107 0.885335 -1.63969e-08
0.899973 0.906448 -1.63969e-08
0.677427 4.19915e-05 0.930151
0.677838 5.03659e-05 0.930156
0.683037 8.40425e-06 0.930218
0.733367 -1.63969e-08 0.930961
0.91488 8.38935e-05 0.934341
0.677066 2.52128e-05 0.930198
0.677479 -1.63969e-08 0.930203
0.682701 8.40425e-06 0.930264
0.733199 8.40425e-06 0.931004
0.914892 2.52128e-05 0.934353
0.672166 8.40425e-06 0.930815
0.672606 8.40425e-06 0.930819
0.678153 1.68085e-05 0.930876
0.730957 -1.63969e-08 0.931567
0.91505 5.87702e-05 0.934511
0.501652 -1.63969e-08 0.939234
0.504753 -1.63969e-08 0.939234
0.537864 6.28829e-06 0.939235
0.686503 -1.63969e-08 0.939232
0.916922 0.42486 0.936293
-1.63969e-08 0.908355 0.916575
-1.63969e-08 0.908375 0.916595
2.93851e-05 0.908629 0.916849
0.582808 0.910669 0.918653
0.912547 0.912547 0.912547
