stillgen/static/lut_dir/REDLog3G10WG_to_gm5_ARRILogC4WG4.cube
# Created with Image Science
LUT_3D_SIZE 33
0.052778 0.052778 0.052778
0.0647418 0.0530392 0.0518862
0.0790641 0.053398 0.050643
0.0957787 0.0538903 0.0489019
0.1148 0.0545646 0.0464479
0.135941 0.055486 0.0429563
0.158941 0.0567413 0.0379197
0.183512 0.0584442 0.0305008
0.209363 0.0607416 0.0192027
0.236232 0.0638182 0.000985831
0.261008 0.0774233 -1.02481e-08
0.286913 0.0938081 -1.63969e-08
0.313823 0.112518 -8.19846e-09
0.341513 0.133379 5.96046e-08
0.369799 0.156138 2.98023e-08
0.398533 0.180508 1.49012e-07
0.427601 0.206198 8.9407e-08
0.456917 0.23294 -1.63969e-08
0.486415 0.260501 -1.63969e-08
0.516046 0.288688 2.68221e-07
0.545776 0.317348 2.68221e-07
0.575577 0.346362 -1.63969e-08
0.605429 0.375637 1.3113e-06
0.63532 0.405105 5.06639e-07
0.665238 0.434715 2.08616e-06
0.695176 0.464429 1.04308e-06
0.725128 0.494218 4.20213e-06
0.755091 0.524062 2.08616e-06
0.785062 0.553946 4.20213e-06
0.815038 0.58386 8.40425e-06
0.845018 0.613794 4.20213e-06
0.875002 0.643745 3.35872e-05
0.904987 0.673706 -1.63969e-08
0.0521458 0.0650186 0.0488957
0.0641858 0.0652478 0.0479659
0.0785873 0.0655627 0.046669
0.0953801 0.0659951 0.0448516
0.114475 0.0665877 0.0422873
0.135681 0.0673984 0.0386337
0.158739 0.0685044 0.0333519
0.183356 0.0700076 0.0255455
0.209245 0.0720405 0.0135914
0.235366 0.0765465 -1.63969e-08
0.260313 0.0883355 -1.63969e-08
0.286429 0.102752 -1.63969e-08
0.313483 0.119724 -1.63969e-08
0.341273 0.139082 1.19209e-07
0.369628 0.160578 -1.63969e-08
0.39841 0.183914 1.19209e-07
0.427513 0.208778 -1.63969e-08
0.456853 0.234874 8.9407e-08
0.486369 0.261939 3.27826e-07
0.516013 0.289751 1.49012e-07
0.545752 0.31813 -1.63969e-08
0.575559 0.346935 -1.63969e-08
0.605417 0.376056 -1.63969e-08
0.635311 0.405411 -1.63969e-08
0.665231 0.434938 1.04308e-06
0.695171 0.46459 1.04308e-06
0.725125 0.494335 -1.63969e-08
0.755089 0.524147 -1.63969e-08
0.78506 0.554008 2.08616e-06
0.815037 0.583905 -1.63969e-08
0.845017 0.613827 4.20213e-06
0.875001 0.643768 8.40425e-06
0.904986 0.673723 1.68085e-05
0.0512674 0.079628 0.0432658
0.0634139 0.0798241 0.0422781
0.077926 0.0800936 0.0408992
0.0948279 0.0804638 0.0389649
0.114025 0.0809717 0.0362315
0.135323 0.0816672 0.0323282
0.158459 0.0826174 0.0266665
0.183141 0.0839114 0.0182545
0.209082 0.085666 0.0052602
0.234074 0.0915321 -8.19846e-09
0.259405 0.101239 -8.19846e-09
0.285786 0.113639 -8.19846e-09
0.313027 0.128714 -1.63969e-08
0.340947 0.146349 8.9407e-08
0.369395 0.166335 -1.63969e-08
0.398243 0.188393 -1.63969e-08
0.427393 0.212209 -1.63969e-08
0.456767 0.23747 -1.63969e-08
0.486306 0.263883 2.68221e-07
0.515968 0.291195 1.49012e-07
0.545719 0.319197 2.68221e-07
0.575535 0.347719 -1.63969e-08
0.605399 0.37663 2.68221e-07
0.635298 0.40583 5.06639e-07
0.665222 0.435244 -1.63969e-08
0.695164 0.464813 -1.63969e-08
0.72512 0.494497 4.20213e-06
0.755085 0.524265 -1.63969e-08
0.785058 0.554094 -1.63969e-08
0.815035 0.583967 -1.63969e-08
0.845016 0.613872 8.40425e-06
0.875 0.643801 -1.63969e-08
0.904986 0.673747 -1.63969e-08
0.050043 0.0966257 0.0349051
0.0623396 0.0967891 0.0338244
0.0770069 0.097014 0.032314
0.0940615 0.097323 0.0301915
0.113402 0.0977473 0.0271848
0.134827 0.0983289 0.0228755
0.158071 0.0991246 0.0165906
0.182844 0.10021 0.00717148
0.207747 0.102697 -8.71087e-09
0.232458 0.10817 -1.63969e-08
0.258239 0.116068 5.96046e-08
0.284947 0.12654 -8.19846e-09
0.312422 0.139664 -8.19846e-09
0.340512 0.155415 -1.63969e-08
0.36908 0.173668 -1.63969e-08
0.398016 0.194199 -1.63969e-08
0.427228 0.216722 1.49012e-07
0.456648 0.240923 -1.63969e-08
0.48622 0.266492 -1.63969e-08
0.515906 0.293146 5.06639e-07
0.545674 0.320645 -1.63969e-08
0.575503 0.348787 -1.63969e-08
0.605376 0.377415 5.06639e-07
0.635281 0.406405 5.06639e-07
0.66521 0.435663 -1.63969e-08
0.695155 0.465119 2.08616e-06
0.725113 0.49472 -1.63969e-08
0.75508 0.524427 2.08616e-06
0.785054 0.554212 -1.63969e-08
0.815032 0.584053 8.40425e-06
0.845014 0.613935 4.20213e-06
0.874999 0.643846 1.68085e-05
0.904985 0.67378 -1.63969e-08
0.0483287 0.115913 0.0219995
0.0608383 0.116046 0.0207577
0.0757252 0.116229 0.0190186
0.0929947 0.11648 0.0165674
0.112535 0.116826 0.01308
0.134138 0.117301 0.00804979
0.157535 0.117951 0.000640839
0.180861 0.119095 -1.63969e-08
0.205165 0.121726 -1.63969e-08
0.230504 0.126147 2.98023e-08
0.256783 0.132627 -1.63969e-08
0.283871 0.1414 2.98023e-08
0.311633 0.152645 -1.63969e-08
0.339934 0.166455 -1.63969e-08
0.368659 0.182813 -1.63969e-08
0.39771 0.201592 1.49012e-07
0.427006 0.222569 -1.63969e-08
0.456486 0.245461 -1.63969e-08
0.486103 0.26996 2.08616e-07
0.51582 0.295764 -1.63969e-08
0.545612 0.322601 2.68221e-07
0.575458 0.350239 -1.63969e-08
0.605343 0.378485 1.57952e-06
0.635257 0.407191 1.04308e-06
0.665192 0.436239 5.06639e-07
0.695143 0.465539 -1.63969e-08
0.725104 0.495027 2.08616e-06
0.755074 0.52465 -1.63969e-08
0.785049 0.554374 4.20213e-06
0.815029 0.58417 -1.63969e-08
0.845012 0.61402 -1.63969e-08
0.874997 0.643909 -1.63969e-08
0.904983 0.673825 2.52128e-05
0.0459132 0.13729 0.000666708
0.0589071 0.137114 -1.63969e-08
0.074201 0.136702 -1.63969e-08
0.0914942 0.136362 -1.58845e-08
0.110641 0.136208 -1.63969e-08
0.13147 0.1364 2.98023e-08
0.153807 0.137138 -1.63969e-08
0.177487 0.138659 -1.63969e-08
0.202353 0.141225 -1.63969e-08
0.228251 0.145117 -1.63969e-08
0.255025 0.150625 -1.63969e-08
0.282528 0.158037 2.98023e-08
0.310621 0.16761 -1.63969e-08
0.339181 0.179543 -1.63969e-08
0.368102 0.193944 8.9407e-08
0.397299 0.210807 -1.63969e-08
0.426705 0.230012 -1.63969e-08
0.456266 0.251342 1.49012e-07
0.485942 0.27452 1.49012e-07
0.515704 0.299246 -1.63969e-08
0.545527 0.325227 -1.63969e-08
0.575396 0.352199 -1.63969e-08
0.605298 0.379939 -1.63969e-08
0.635225 0.408262 -1.63969e-08
0.665169 0.437025 -1.63969e-08
0.695126 0.466115 -1.63969e-08
0.725092 0.495447 2.08616e-06
0.755065 0.524957 2.08616e-06
0.785043 0.554597 2.08616e-06
0.815024 0.584333 -1.63969e-08
0.845008 0.614138 -1.63969e-08
0.874994 0.643994 -1.63969e-08
0.904982 0.673887 3.35872e-05
0.0527622 0.151108 -1.63969e-08
0.063345 0.151433 -1.63969e-08
0.0762076 0.151881 -1.43473e-08
0.0914547 0.152494 -1.02481e-08
0.109073 0.153335 -1.63969e-08
0.128936 0.154482 -1.63969e-08
0.150821 0.156042 -1.63969e-08
0.174457 0.158153 -1.63969e-08
0.199548 0.160988 2.98023e-08
0.225815 0.164763 -1.63969e-08
0.253007 0.169729 -1.63969e-08
0.280913 0.17617 -1.63969e-08
0.309361 0.18438 2.98023e-08
0.338216 0.19463 -1.63969e-08
0.367374 0.207136 -1.63969e-08
0.396756 0.22202 -1.63969e-08
0.426303 0.239286 -1.63969e-08
0.45597 0.258825 -1.63969e-08
0.485725 0.280426 -1.63969e-08
0.515544 0.303821 -1.63969e-08
0.545411 0.328717 3.8743e-07
0.575311 0.35483 -1.63969e-08
0.605237 0.381903 -1.63969e-08
0.63518 0.409718 -1.63969e-08
0.665136 0.438098 1.04308e-06
0.695102 0.466902 -1.63969e-08
0.725075 0.496023 -1.63969e-08
0.755052 0.525377 -1.63969e-08
0.785034 0.554903 4.20213e-06
0.815018 0.584556 8.40425e-06
0.845004 0.6143 -1.63969e-08
0.874991 0.644112 1.68085e-05
0.904979 0.673973 -1.63969e-08
0.0616987 0.167085 -1.63969e-08
0.0702851 0.167743 -1.63969e-08
0.0810556 0.168605 -1.63969e-08
0.0942596 0.169718 -1.63969e-08
0.110044 0.171132 -1.63969e-08
0.128417 0.172901 -8.19846e-09
0.149243 0.17508 -1.63969e-08
0.172257 0.177736 -1.63969e-08
0.197109 0.180955 -8.19846e-09
0.223424 0.18486 2.98023e-08
0.250845 0.189624 2.98023e-08
0.279066 0.195473 2.98023e-08
0.307848 0.202679 2.98023e-08
0.337016 0.21154 -1.63969e-08
0.366444 0.222338 8.9407e-08
0.396047 0.235301 -1.63969e-08
0.42577 0.250566 -1.63969e-08
0.455573 0.268146 -1.63969e-08
0.485431 0.28794 2.68221e-07
0.515329 0.309747 -1.63969e-08
0.545253 0.333305 -1.63969e-08
0.575196 0.358327 -1.63969e-08
0.605152 0.384537 -1.63969e-08
0.635118 0.411684 -1.63969e-08
0.665091 0.439554 -1.63969e-08
0.695069 0.467975 2.08616e-06
0.725051 0.49681 -1.63969e-08
0.755035 0.525953 -1.63969e-08
0.785021 0.555324 -1.63969e-08
0.815009 0.584862 8.40425e-06
0.844997 0.614523 -1.63969e-08
0.874986 0.644274 -1.63969e-08
0.904976 0.674091 -1.63969e-08
0.0727637 0.185408 -1.63969e-08
0.0797578 0.186166 2.98023e-08
0.088721 0.187163 -1.63969e-08
0.0999813 0.188455 -8.19846e-09
0.113806 0.190101 -1.63969e-08
0.130349 0.192157 -8.19846e-09
0.149614 0.19467 -8.19846e-09
0.171437 0.197676 -1.63969e-08
0.19551 0.201209 -8.19846e-09
0.221428 0.205316 2.98023e-08
0.24876 0.210077 -1.63969e-08
0.277103 0.215632 2.98023e-08
0.306126 0.222184 -1.63969e-08
0.335578 0.229999 -1.63969e-08
0.365287 0.239374 -1.63969e-08
0.395141 0.250602 8.9407e-08
0.425075 0.263921 2.08616e-07
0.455047 0.279478 8.9407e-08
0.485039 0.297298 2.68221e-07
0.515037 0.317284 5.06639e-07
0.545038 0.339245 -1.63969e-08
0.575038 0.362924 -1.63969e-08
0.605037 0.38804 8.04663e-07
0.635034 0.414321 2.08616e-06
0.66503 0.441522 -1.63969e-08
0.695025 0.469433 -1.63969e-08
0.725019 0.497884 -1.63969e-08
0.755012 0.526741 -1.63969e-08
0.785004 0.5559 4.20213e-06
0.814996 0.585283 8.40425e-06
0.844988 0.61483 4.20213e-06
0.874979 0.644497 -1.63969e-08
0.904971 0.674253 -1.63969e-08
0.0861416 0.205918 -8.19846e-09
0.0918198 0.206648 -1.63969e-08
0.0992098 0.207617 -8.19846e-09
0.108667 0.208887 -1.63969e-08
0.120527 0.210526 -1.63969e-08
0.135058 0.212602 -1.63969e-08
0.152404 0.215172 2.98023e-08
0.172547 0.218279 -1.63969e-08
0.195291 0.221942 -1.63969e-08
0.220289 0.22617 -1.63969e-08
0.247096 0.230976 2.98023e-08
0.275245 0.23641 2.98023e-08
0.30431 0.242583 2.98023e-08
0.333946 0.249684 -1.63969e-08
0.363903 0.257971 1.19209e-07
0.394016 0.267744 -1.63969e-08
0.424187 0.279301 2.08616e-07
0.454362 0.292892 8.9407e-08
0.484519 0.308671 3.8743e-07
0.514647 0.326669 5.06639e-07
0.544748 0.3468 -1.63969e-08
0.574824 0.368875 -1.63969e-08
0.60488 0.392643 -1.63969e-08
0.634919 0.417828 -1.63969e-08
0.664946 0.444161 -1.63969e-08
0.694963 0.471401 1.04308e-06
0.724974 0.499342 -1.63969e-08
0.754979 0.527815 -1.63969e-08
0.784981 0.556688 -1.63969e-08
0.814979 0.585859 -1.63969e-08
0.844976 0.61525 -1.63969e-08
0.87497 0.644804 -1.63969e-08
0.904964 0.674476 -1.63969e-08
0.101913 0.228373 2.98023e-08
0.106482 0.229015 -1.63969e-08
0.1125 0.229874 -1.63969e-08
0.120314 0.231013 2.98023e-08
0.130287 0.232502 -1.63969e-08
0.142753 0.234418 2.98023e-08
0.157973 0.236835 -1.63969e-08
0.176071 0.239812 -1.63969e-08
0.197003 0.243386 -1.63969e-08
0.220542 0.247564 -1.63969e-08
0.246308 0.252333 2.98023e-08
0.27383 0.257682 -1.63969e-08
0.30262 0.263635 -1.63969e-08
0.332239 0.270285 -1.63969e-08
0.362339 0.277806 2.98023e-08
0.392672 0.286453 -1.63969e-08
0.423084 0.296527 -1.63969e-08
0.453487 0.308334 -1.63969e-08
0.483841 0.32213 1.49012e-07
0.514132 0.338074 1.49012e-07
0.544361 0.356206 8.04663e-07
0.574536 0.376443 2.68221e-07
0.604666 0.398602 -1.63969e-08
0.634762 0.422435 -1.63969e-08
0.664831 0.447671 1.04308e-06
0.69488 0.474043 1.04308e-06
0.724913 0.501311 -1.63969e-08
0.754935 0.529273 2.08616e-06
0.784948 0.557762 4.20213e-06
0.814955 0.586647 4.20213e-06
0.844958 0.615827 -1.63969e-08
0.874958 0.645224 -1.63969e-08
0.904955 0.674783 2.52128e-05
0.120039 0.252488 -1.63969e-08
0.123671 0.253022 -1.63969e-08
0.1285 0.253741 2.98023e-08
0.134846 0.254702 -1.63969e-08
0.143064 0.255975 2.98023e-08
0.153519 0.257637 -1.63969e-08
0.166542 0.25977 -1.63969e-08
0.182377 0.262454 2.98023e-08
0.201131 0.265749 2.98023e-08
0.222731 0.269686 -1.63969e-08
0.246925 0.274261 8.9407e-08
0.273308 0.279446 8.9407e-08
0.30139 0.28521 8.9407e-08
0.330672 0.291558 2.98023e-08
0.36071 0.298568 -1.63969e-08
0.391156 0.306407 8.9407e-08
0.421769 0.315325 -1.63969e-08
0.452402 0.325626 -1.63969e-08
0.482975 0.337619 -1.63969e-08
0.513459 0.351566 -1.63969e-08
0.543847 0.367633 2.68221e-07
0.57415 0.385864 -1.63969e-08
0.604379 0.40618 -1.63969e-08
0.634549 0.428401 1.04308e-06
0.664675 0.452282 1.57952e-06
0.694765 0.477554 -1.63969e-08
0.724829 0.503954 2.08616e-06
0.754873 0.531244 2.08616e-06
0.784904 0.559221 -1.63969e-08
0.814923 0.587722 8.40425e-06
0.844935 0.616615 1.26064e-05
0.874941 0.645801 -1.63969e-08
0.904943 0.675203 -1.63969e-08
0.140368 0.277973 2.98023e-08
0.143216 0.2784 -1.63969e-08
0.147031 0.278978 8.9407e-08
0.152094 0.279757 1.19209e-07
0.158734 0.280798 2.98023e-08
0.16731 0.282174 -1.63969e-08
0.178187 0.28397 -1.63969e-08
0.191689 0.286272 2.98023e-08
0.208046 0.289161 -1.63969e-08
0.227344 0.292699 2.98023e-08
0.249487 0.296913 -1.63969e-08
0.274202 0.301792 8.9407e-08
0.301067 0.307292 8.9407e-08
0.329579 0.313369 -1.63969e-08
0.359234 0.320014 -1.63969e-08
0.389585 0.327295 8.9407e-08
0.420289 0.335371 -1.63969e-08
0.451108 0.344491 -1.63969e-08
0.481902 0.35496 -1.63969e-08
0.5126 0.367092 2.68221e-07
0.543179 0.381151 2.68221e-07
0.573639 0.397309 -1.63969e-08
0.603994 0.415613 -1.63969e-08
0.634262 0.435986 -1.63969e-08
0.664462 0.458251 2.6226e-06
0.694608 0.482167 2.08616e-06
0.724714 0.507467 -1.63969e-08
0.754789 0.533887 -1.63969e-08
0.784842 0.561192 -1.63969e-08
0.814878 0.589181 -1.63969e-08
0.844902 0.617689 -1.63969e-08
0.874917 0.646589 -1.63969e-08
0.904926 0.67578 -1.63969e-08
0.162666 0.304553 2.98023e-08
0.164868 0.304885 -1.63969e-08
0.167836 0.305337 -1.63969e-08
0.171808 0.30595 -1.63969e-08
0.177072 0.306775 -1.63969e-08
0.183961 0.307877 -1.63969e-08
0.192838 0.309333 -1.63969e-08
0.204067 0.31123 8.9407e-08
0.217964 0.31366 8.9407e-08
0.234745 0.316706 8.9407e-08
0.254478 0.320428 1.49012e-07
0.277051 0.324852 -1.63969e-08
0.302171 0.329958 -1.63969e-08
0.329404 0.335695 8.9407e-08
0.358242 0.342006 2.08616e-07
0.388176 0.348873 -1.63969e-08
0.41876 0.356355 -1.63969e-08
0.449653 0.364607 -1.63969e-08
0.480623 0.373876 -1.63969e-08
0.511536 0.38447 1.49012e-07
0.542325 0.396704 -1.63969e-08
0.572973 0.410846 -1.63969e-08
0.603484 0.42707 -1.63969e-08
0.633878 0.445427 -1.63969e-08
0.664176 0.465842 -1.63969e-08
0.694396 0.48814 5.24521e-06
0.724558 0.512082 -1.63969e-08
0.754675 0.537401 -1.63969e-08
0.784759 0.563836 2.08616e-06
0.814817 0.591152 4.20213e-06
0.844858 0.619149 4.20213e-06
0.874885 0.647664 -1.63969e-08
0.904902 0.676568 2.52128e-05
0.18665 0.331988 -1.63969e-08
0.188331 0.332242 -1.63969e-08
0.190608 0.332589 -1.63969e-08
0.193676 0.33306 -1.63969e-08
0.197778 0.333699 8.9407e-08
0.203206 0.334558 -1.63969e-08
0.210298 0.335706 -1.63969e-08
0.21942 0.337222 -1.63969e-08
0.230932 0.339197 8.9407e-08
0.245143 0.341723 8.9407e-08
0.262259 0.344886 -1.63969e-08
0.282332 0.348747 8.9407e-08
0.305236 0.353328 -1.63969e-08
0.330665 0.358604 1.49012e-07
0.358177 0.364517 -1.63969e-08
0.387259 0.371002 -1.63969e-08
0.417399 0.378033 1.49012e-07
0.448155 0.385663 2.68221e-07
0.479187 0.394044 -1.63969e-08
0.510268 0.403424 -1.63969e-08
0.541267 0.414109 -1.63969e-08
0.572122 0.426418 2.68221e-07
0.60282 0.440621 5.06639e-07
0.63337 0.456893 2.08616e-06
0.663792 0.475289 1.57952e-06
0.69411 0.495735 2.08616e-06
0.724346 0.518057 -1.63969e-08
0.754519 0.542017 4.20213e-06
0.784644 0.56735 -1.63969e-08
0.814734 0.593796 -1.63969e-08
0.844797 0.62112 1.26064e-05
0.87484 0.649123 2.52128e-05
0.90487 0.677643 8.40425e-06
0.212028 0.360081 -1.63969e-08
0.213297 0.360272 2.08616e-07
0.215023 0.360533 -1.63969e-08
0.217361 0.36089 -1.63969e-08
0.220509 0.361376 -1.63969e-08
0.224714 0.362034 -1.63969e-08
0.230272 0.36292 2.08616e-07
0.237525 0.364103 -1.63969e-08
0.24684 0.365663 -1.63969e-08
0.258573 0.367695 -1.63969e-08
0.273029 0.370294 -1.63969e-08
0.290404 0.373545 -1.63969e-08
0.310737 0.377509 1.49012e-07
0.333892 0.382205 2.68221e-07
0.359554 0.387608 -1.63969e-08
0.387274 0.39365 -1.63969e-08
0.416536 0.400263 3.8743e-07
0.446829 0.407415 -1.63969e-08
0.477711 0.415154 -1.63969e-08
0.508845 0.423631 5.06639e-07
0.540007 0.433091 -1.63969e-08
0.571069 0.443844 8.04663e-07
0.601973 0.456207 -1.63969e-08
0.632707 0.470454 -1.63969e-08
0.663284 0.486762 -1.63969e-08
0.693727 0.505186 1.04308e-06
0.72406 0.525654 -1.63969e-08
0.754307 0.547994 6.28829e-06
0.784488 0.571968 -1.63969e-08
0.814619 0.597311 1.26064e-05
0.844713 0.623765 8.40425e-06
0.874779 0.651095 2.52128e-05
0.904825 0.679102 -1.63969e-08
0.238523 0.38867 2.68221e-07
0.239472 0.388812 1.49012e-07
0.240767 0.389007 1.49012e-07
0.242529 0.389275 -1.63969e-08
0.244915 0.38964 -1.63969e-08
0.248125 0.390136 -1.63969e-08
0.25241 0.390809 -1.63969e-08
0.25807 0.391714 -1.63969e-08
0.265448 0.392922 1.49012e-07
0.274911 0.394516 -1.63969e-08
0.286815 0.396591 1.49012e-07
0.301458 0.399242 1.49012e-07
0.319028 0.402558 -1.63969e-08
0.339558 0.406598 2.68221e-07
0.362901 0.411381 -1.63969e-08
0.388736 0.416876 -1.63969e-08
0.416611 0.423014 1.49012e-07
0.446007 0.429721 -1.63969e-08
0.476412 0.436962 -1.63969e-08
0.507386 0.444781 -1.63969e-08
0.538594 0.453327 8.04663e-07
0.569815 0.462847 5.06639e-07
0.600923 0.473648 -1.63969e-08
0.631862 0.486051 5.06639e-07
0.662623 0.50033 -1.63969e-08
0.69322 0.516665 -1.63969e-08
0.723677 0.535109 3.12924e-06
0.754021 0.555593 4.20213e-06
0.784276 0.577946 -1.63969e-08
0.814463 0.60193 -1.63969e-08
0.844598 0.62728 8.40425e-06
0.874695 0.65374 -1.63969e-08
0.904764 0.681074 -1.63969e-08
0.265894 0.41763 -1.63969e-08
0.266598 0.417735 -1.63969e-08
0.267562 0.41788 -1.63969e-08
0.268878 0.418078 -1.63969e-08
0.270667 0.41835 -1.63969e-08
0.273089 0.418721 -1.63969e-08
0.276347 0.419226 -1.63969e-08
0.280693 0.419909 -1.63969e-08
0.286431 0.420828 1.49012e-07
0.293903 0.422055 -1.63969e-08
0.303479 0.423674 1.49012e-07
0.315511 0.42578 -1.63969e-08
0.330295 0.428471 -1.63969e-08
0.348013 0.431834 -1.63969e-08
0.36869 0.43593 2.68221e-07
0.392173 0.440776 5.06639e-07
0.418136 0.446339 -1.63969e-08
0.446125 0.452547 2.68221e-07
0.475618 0.459323 5.06639e-07
0.506105 0.466629 -1.63969e-08
0.537147 0.474506 5.06639e-07
0.56841 0.483104 -1.63969e-08
0.599673 0.492666 -1.63969e-08
0.630814 0.503503 -1.63969e-08
0.661779 0.515935 2.08616e-06
0.692559 0.530238 2.08616e-06
0.72317 0.546591 -1.63969e-08
0.753638 0.56505 -1.63969e-08
0.78399 0.585547 -1.63969e-08
0.814251 0.607909 -1.63969e-08
0.844442 0.631899 4.20213e-06
0.874581 0.657255 8.40425e-06
0.90468 0.683719 -1.63969e-08
0.293936 0.446866 -1.63969e-08
0.294456 0.446943 -1.63969e-08
0.295169 0.44705 -1.63969e-08
0.296144 0.447196 -1.63969e-08
0.297475 0.447397 -1.63969e-08
0.299286 0.447672 2.68221e-07
0.301735 0.448047 -1.63969e-08
0.305029 0.448558 2.68221e-07
0.309421 0.449249 -1.63969e-08
0.315217 0.450179 -1.63969e-08
0.322761 0.451419 -1.63969e-08
0.332421 0.453056 -1.63969e-08
0.34455 0.455185 2.68221e-07
0.359439 0.457905 8.04663e-07
0.377266 0.461304 -1.63969e-08
0.398052 0.46544 -1.63969e-08
0.421638 0.470332 5.06639e-07
0.447696 0.475945 -1.63969e-08
0.475768 0.482205 2.68221e-07
0.505333 0.489031 -1.63969e-08
0.53588 0.496384 -1.63969e-08
0.566971 0.504304 -1.63969e-08
0.598273 0.512938 5.06639e-07
0.629568 0.522532 2.08616e-06
0.660733 0.533395 -1.63969e-08
0.691716 0.545848 2.08616e-06
0.72251 0.560168 4.20213e-06
0.753132 0.576535 -1.63969e-08
0.783608 0.595005 2.08616e-06
0.813965 0.61551 8.40425e-06
0.844231 0.637879 4.20213e-06
0.874425 0.661875 -1.63969e-08
0.904566 0.687235 -1.63969e-08
0.322487 0.476305 -1.63969e-08
0.32287 0.476362 2.68221e-07
0.323394 0.47644 -1.63969e-08
0.324113 0.476548 2.68221e-07
0.325097 0.476695 2.68221e-07
0.32644 0.476898 2.68221e-07
0.328266 0.477175 -1.63969e-08
0.330736 0.477553 -1.63969e-08
0.334056 0.478068 -1.63969e-08
0.338483 0.478765 -1.63969e-08
0.344322 0.479703 -1.63969e-08
0.35192 0.480953 -1.63969e-08
0.361643 0.482604 2.68221e-07
0.373843 0.48475 5.06639e-07
0.388809 0.48749 -1.63969e-08
0.406717 0.490914 5.06639e-07
0.427583 0.495081 2.68221e-07
0.451245 0.500007 -1.63969e-08
0.477373 0.505656 -1.63969e-08
0.505506 0.511953 -1.63969e-08
0.535123 0.518816 -1.63969e-08
0.565714 0.526203 -1.63969e-08
0.59684 0.534154 1.57952e-06
0.628171 0.542816 -1.63969e-08
0.659489 0.552433 -1.63969e-08
0.690671 0.563314 -1.63969e-08
0.721668 0.575783 -1.63969e-08
0.752472 0.590115 -1.63969e-08
0.783102 0.606492 2.08616e-06
0.813583 0.62497 8.40425e-06
0.843945 0.645481 -1.63969e-08
0.874213 0.667855 -1.63969e-08
0.90441 0.691855 -1.63969e-08
0.35142 0.505894 -1.63969e-08
0.3517 0.505935 -1.63969e-08
0.352084 0.505993 -1.63969e-08
0.352612 0.506071 -1.63969e-08
0.353336 0.506179 -1.63969e-08
0.354327 0.506328 -1.63969e-08
0.355678 0.506532 -1.63969e-08
0.357515 0.506811 -1.63969e-08
0.36 0.507191 -1.63969e-08
0.363341 0.507709 5.06639e-07
0.367793 0.50841 5.06639e-07
0.373665 0.509353 -1.63969e-08
0.381301 0.510612 -1.63969e-08
0.391071 0.512271 -1.63969e-08
0.403323 0.51443 -1.63969e-08
0.418347 0.517186 -1.63969e-08
0.436314 0.520629 -1.63969e-08
0.457239 0.524817 5.06639e-07
0.480957 0.529768 -1.63969e-08
0.507135 0.535443 1.04308e-06
0.535312 0.541767 1.04308e-06
0.564968 0.548657 -1.63969e-08
0.59559 0.556069 1.04308e-06
0.626743 0.564043 -1.63969e-08
0.658095 0.572724 -1.63969e-08
0.689429 0.582358 -1.63969e-08
0.720624 0.593253 2.08616e-06
0.75163 0.605733 -1.63969e-08
0.782442 0.620074 1.04904e-05
0.813077 0.636458 -1.63969e-08
0.843563 0.654942 8.40425e-06
0.873928 0.675458 -1.63969e-08
0.904198 0.697835 -1.63969e-08
0.380635 0.535592 5.06639e-07
0.38084 0.535622 -1.63969e-08
0.381121 0.535664 1.04308e-06
0.381507 0.535721 -1.63969e-08
0.382038 0.5358 -1.63969e-08
0.382765 0.535909 5.06639e-07
0.38376 0.536058 5.06639e-07
0.385118 0.536263 -1.63969e-08
0.386963 0.536543 5.06639e-07
0.38946 0.536925 -1.63969e-08
0.392815 0.537446 -1.63969e-08
0.397287 0.53815 5.06639e-07
0.403182 0.539097 5.06639e-07
0.410847 0.540361 5.06639e-07
0.420651 0.542027 -1.63969e-08
0.432942 0.544195 5.06639e-07
0.448008 0.546962 5.06639e-07
0.466018 0.550418 5.06639e-07
0.486986 0.554623 -1.63969e-08
0.510745 0.559591 -1.63969e-08
0.536959 0.565286 -1.63969e-08
0.565169 0.57163 1.04308e-06
0.594853 0.578539 -1.63969e-08
0.625498 0.58597 -1.63969e-08
0.65667 0.59396 2.08616e-06
0.688037 0.602655 4.20213e-06
0.719383 0.612301 2.08616e-06
0.750587 0.623206 -1.63969e-08
0.781601 0.635694 -1.63969e-08
0.812418 0.650042 -1.63969e-08
0.843057 0.666431 1.26064e-05
0.873546 0.684919 -1.63969e-08
0.903913 0.705438 -1.63969e-08
0.410059 0.56537 -1.63969e-08
0.410208 0.565392 -1.63969e-08
0.410414 0.565422 -1.63969e-08
0.410696 0.565464 -1.63969e-08
0.411084 0.565522 1.04308e-06
0.411616 0.565601 -1.63969e-08
0.412346 0.56571 -1.63969e-08
0.413344 0.56586 -1.63969e-08
0.414707 0.566065 -1.63969e-08
0.416558 0.566346 1.04308e-06
0.419063 0.56673 -1.63969e-08
0.422429 0.567251 -1.63969e-08
0.426915 0.567958 -1.63969e-08
0.432827 0.568908 -1.63969e-08
0.440514 0.570176 2.08616e-06
0.450342 0.571848 1.04308e-06
0.462662 0.574021 -1.63969e-08
0.477758 0.576797 -1.63969e-08
0.4958 0.580263 -1.63969e-08
0.516799 0.58448 -1.63969e-08
0.540588 0.589461 2.08616e-06
0.56683 0.595169 1.04308e-06
0.595063 0.601528 1.04308e-06
0.624766 0.608451 -1.63969e-08
0.655429 0.615895 -1.63969e-08
0.686614 0.623897 -1.63969e-08
0.717992 0.632603 -1.63969e-08
0.749347 0.642257 -1.63969e-08
0.780558 0.65317 -1.63969e-08
0.811577 0.665663 4.20213e-06
0.842398 0.680016 -1.63969e-08
0.87304 0.696409 -1.63969e-08
0.903531 0.7149 8.40425e-06
0.439637 0.595206 1.04308e-06
0.439746 0.595222 -1.63969e-08
0.439895 0.595244 -1.63969e-08
0.440101 0.595274 1.04308e-06
0.440384 0.595316 1.04308e-06
0.440773 0.595374 -1.63969e-08
0.441306 0.595454 -1.63969e-08
0.442038 0.595563 1.04308e-06
0.443039 0.595713 -1.63969e-08
0.444405 0.595919 -1.63969e-08
0.446261 0.5962 -1.63969e-08
0.448772 0.596585 1.04308e-06
0.452146 0.597108 2.08616e-06
0.456641 0.597816 -1.63969e-08
0.462566 0.598768 -1.63969e-08
0.470268 0.600039 1.04308e-06
0.480115 0.601714 1.04308e-06
0.492455 0.603893 -1.63969e-08
0.507574 0.606675 1.04308e-06
0.52564 0.610148 -1.63969e-08
0.546661 0.614373 3.12924e-06
0.570471 0.619363 -1.63969e-08
0.596733 0.625082 -1.63969e-08
0.624984 0.631451 2.08616e-06
0.654701 0.638385 -1.63969e-08
0.685376 0.645838 2.08616e-06
0.716571 0.653849 4.20213e-06
0.747958 0.662562 -1.63969e-08
0.779318 0.672223 8.40425e-06
0.810534 0.68314 -1.63969e-08
0.841557 0.695639 -1.63969e-08
0.872381 0.709995 -1.63969e-08
